storage/app/icons/phosphoricons/bold/sim-card-bold.svg

<svg xmlns="http://www.w3.org/2000/svg" fill="currentColor" viewBox="0 0 256 256"><path d="m216.49 79.51-56-56A12 12 0 0 0 152 20H56a20 20 0 0 0-20 20v176a20 20 0 0 0 20 20h144a20 20 0 0 0 20-20V88a12 12 0 0 0-3.51-8.49M196 212H60V44h87l49 49ZM88 112a12 12 0 0 0-12 12v60a12 12 0 0 0 12 12h80a12 12 0 0 0 12-12v-60a12 12 0 0 0-12-12Zm12 24h16v36h-16Zm56 36h-16v-36h16Z"/></svg>

<svg xmlns="http://www.w3.org/2000/svg" viewBox="0 0 256 256" fill="currentColor"><path d="M216.49,79.51l-56-56A12,12,0,0,0,152,20H56A20,20,0,0,0,36,40V216a20,20,0,0,0,20,20H200a20,20,0,0,0,20-20V88A12,12,0,0,0,216.49,79.51ZM196,212H60V44h87l49,49ZM88,112a12,12,0,0,0-12,12v60a12,12,0,0,0,12,12h80a12,12,0,0,0,12-12V124a12,12,0,0,0-12-12Zm12,24h16v36H100Zm56,36H140V136h16Z"/></svg>
